fs/arrow_circle_down_double_20_regular.svg

<svg viewBox="0 0 20 20" fill="none" xmlns="http://www.w3.org/2000/svg" height="1em" width="1em">
  <path d="M9 12.2071L7.35355 13.8536C7.15829 14.0488 6.84171 14.0488 6.64645 13.8536L5 12.2071C4.80474 12.0118 4.80474 11.6953 5 11.5C5.19526 11.3047 5.51185 11.3047 5.70711 11.5L6.5 12.2929L6.5 6.5C6.5 6.22386 6.72386 6 7 6C7.27614 6 7.5 6.22386 7.5 6.5L7.5 12.2929L8.29289 11.5C8.48815 11.3047 8.80474 11.3047 9 11.5C9.19526 11.6953 9.19526 12.0118 9 12.2071ZM10 18C14.4183 18 18 14.4183 18 10C18 5.58172 14.4183 2 10 2C5.58172 2 2 5.58172 2 10C2 14.4183 5.58172 18 10 18ZM17 10C17 13.866 13.866 17 10 17C6.13401 17 3 13.866 3 10C3 6.13401 6.13401 3 10 3C13.866 3 17 6.13401 17 10ZM13.3536 13.8536L15 12.2071C15.1953 12.0118 15.1953 11.6953 15 11.5C14.8047 11.3047 14.4882 11.3047 14.2929 11.5L13.5 12.2929L13.5 6.5C13.5 6.22386 13.2761 6 13 6C12.7239 6 12.5 6.22386 12.5 6.5L12.5 12.2929L11.7071 11.5C11.5118 11.3047 11.1953 11.3047 11 11.5C10.8047 11.6953 10.8047 12.0118 11 12.2071L12.6464 13.8536C12.8417 14.0488 13.1583 14.0488 13.3536 13.8536Z" fill="#212121"/>
</svg>

<svg viewBox="0 0 20 20" fill="none" xmlns="http://www.w3.org/2000/svg" height="1em" width="1em">
  <path d="m9 12.207-1.646 1.647a.5.5 0 0 1-.708 0L5 12.207a.5.5 0 1 1 .707-.707l.793.793V6.5a.5.5 0 0 1 1 0v5.793l.793-.793a.5.5 0 1 1 .707.707ZM10 18a8 8 0 1 0 0-16 8 8 0 0 0 0 16Zm7-8a7 7 0 1 1-14 0 7 7 0 0 1 14 0Zm-3.646 3.854L15 12.207a.5.5 0 1 0-.707-.707l-.793.793V6.5a.5.5 0 0 0-1 0v5.793l-.793-.793a.5.5 0 1 0-.707.707l1.646 1.647a.5.5 0 0 0 .708 0Z" fill="#212121"/>
</svg>
